aheldis/Reinforcement-Learning/A3/assignment3/Pendulum-v1/td3/progress.csv
,log_dir,frame_per_second,episode_reward,total_steps,total_episodes,total_time,actor_loss,critic_loss,target_q,current_q1,current_q2,reward
0,Pendulum-v1,1999,-1381.7715545390402,1199,6,0.5997049808502197,8.703242301940918,0.6563897132873535,-9.00103759765625,-8.893630027770996,-8.915018081665039,-6.66025447845459
1,Pendulum-v1,658,-1446.300693273544,2199,11,3.3383021354675293,23.70866584777832,0.16152717173099518,-23.700698852539062,-23.706796646118164,-23.58833885192871,-7.119227886199951
2,Pendulum-v1,523,-1460.2078586543266,3199,16,6.109710931777954,41.572608947753906,6.620510101318359,-41.98549270629883,-41.55316925048828,-41.58782958984375,-7.637178897857666
3,Pendulum-v1,475,-1412.0617995747864,4199,21,8.829897165298462,53.06522750854492,28.97360610961914,-53.86214828491211,-53.82975769042969,-53.75934600830078,-6.919193744659424
4,Pendulum-v1,449,-1350.07958910821,5199,26,11.565243005752563,67.0486068725586,17.10418128967285,-67.10206604003906,-67.83116149902344,-67.80266571044922,-6.968016624450684
5,Pendulum-v1,432,-1296.2768701070008,6199,31,14.338911056518555,76.13550567626953,64.21835327148438,-76.67549133300781,-76.7637710571289,-76.78744506835938,-6.542384147644043
6,Pendulum-v1,420,-1268.8762755616758,7199,36,17.102221965789795,82.99974822998047,80.18269348144531,-85.01692199707031,-83.39202880859375,-83.44024658203125,-6.514330863952637
7,Pendulum-v1,412,-1184.5623362200326,8199,41,19.864202976226807,89.48162841796875,43.40800857543945,-90.93343353271484,-90.86044311523438,-90.96247863769531,-6.08730411529541
8,Pendulum-v1,407,-1084.0834641330644,9199,46,22.582571983337402,91.69691467285156,3.063377618789673,-92.52125549316406,-92.19801330566406,-92.26504516601562,-5.41938591003418
9,Pendulum-v1,402,-1009.3934147667746,10199,51,25.36487317085266,96.6024169921875,10.48200798034668,-99.49578094482422,-97.71717834472656,-97.77937316894531,-5.348519802093506
10,Pendulum-v1,398,-934.6376321281948,11199,56,28.104575157165527,88.93769836425781,362.5521240234375,-89.64852142333984,-91.02127838134766,-91.05755615234375,-4.515141487121582
11,Pendulum-v1,395,-876.708003067062,12199,61,30.823559045791626,94.8912353515625,117.21395874023438,-96.71754455566406,-96.47701263427734,-96.47443389892578,-4.345800399780273
12,Pendulum-v1,393,-820.0956936845952,13199,66,33.57954001426697,89.07918548583984,112.30657958984375,-89.7177963256836,-90.38226318359375,-90.51465606689453,-3.9022064208984375
13,Pendulum-v1,390,-772.7559492920248,14199,71,36.363961935043335,93.13158416748047,14.322103500366211,-96.73258209228516,-94.73410034179688,-94.6763687133789,-3.901761531829834
14,Pendulum-v1,386,-733.2513569584402,15199,76,39.3561749458313,89.53340911865234,317.4652099609375,-90.99073791503906,-91.84351348876953,-92.12945556640625,-3.341737747192383
15,Pendulum-v1,381,-697.0787786672781,16199,81,42.49444389343262,94.94214630126953,10.959085464477539,-97.10699462890625,-96.76962280273438,-96.7750244140625,-3.5729079246520996
16,Pendulum-v1,376,-665.0566416865394,17199,86,45.67916297912598,87.70024108886719,7.196354389190674,-88.6535415649414,-88.94366455078125,-89.0833511352539,-3.275143623352051
17,Pendulum-v1,374,-635.2958689930891,18199,91,48.64139103889465,84.76339721679688,344.82891845703125,-86.49187469482422,-86.61698150634766,-86.58614349365234,-3.1560840606689453
18,Pendulum-v1,373,-610.703785026354,19199,96,51.46277379989624,93.24607849121094,9.503666877746582,-95.6615219116211,-95.19252014160156,-95.07502746582031,-3.4486727714538574
19,Pendulum-v1,372,-579.6792629513434,20199,101,54.237717151641846,83.1852035522461,11.910623550415039,-84.76153564453125,-85.50271606445312,-85.59321594238281,-2.728888750076294
20,Pendulum-v1,371,-520.6823163516215,21199,106,57.09308314323425,76.93561553955078,8.85668659210205,-79.4816665649414,-78.38815307617188,-78.48062133789062,-2.696519374847412
21,Pendulum-v1,369,-454.9113389006865,22199,111,60.023869037628174,80.03337860107422,6.357266902923584,-82.42282104492188,-82.12532043457031,-82.12614440917969,-2.742739677429199
22,Pendulum-v1,369,-384.07848014606793,23199,116,62.82702994346619,85.37603759765625,21.674243927001953,-90.4156494140625,-88.09140014648438,-88.3853530883789,-2.9801759719848633
23,Pendulum-v1,369,-327.2033289936147,24199,121,65.54186010360718,76.68047332763672,270.98931884765625,-78.38764953613281,-78.45796203613281,-78.72940826416016,-2.5021800994873047
24,Pendulum-v1,368,-277.71029188453645,25199,126,68.29944705963135,73.03150939941406,7.092618942260742,-74.76895141601562,-74.38882446289062,-74.46256256103516,-2.4032342433929443
25,Pendulum-v1,368,-236.99847985748056,26199,131,71.07781505584717,62.288475036621094,9.53203296661377,-63.097900390625,-63.90233612060547,-63.866851806640625,-1.8832805156707764
26,Pendulum-v1,368,-191.76734532836457,27199,136,73.78883290290833,77.05519104003906,12.486870765686035,-78.98361206054688,-79.2115707397461,-79.18606567382812,-2.5067203044891357
27,Pendulum-v1,368,-168.83728581554755,28199,141,76.51146101951599,65.84920501708984,8.829614639282227,-68.16885375976562,-67.54669952392578,-67.21817016601562,-2.191988945007324
28,Pendulum-v1,368,-163.20809267849404,29199,146,79.28208708763123,55.7846794128418,74.09577178955078,-58.7470588684082,-57.66414260864258,-57.52033996582031,-1.8263883590698242
29,Pendulum-v1,368,-151.84461620673287,30199,151,82.04909825325012,61.69184494018555,6.87980318069458,-62.7884521484375,-63.27627182006836,-63.187522888183594,-2.1146130561828613
30,Pendulum-v1,368,-149.2772306839196,31199,156,84.75645399093628,55.717376708984375,5.571803092956543,-57.04770278930664,-57.61964416503906,-57.555213928222656,-1.7091948986053467
31,Pendulum-v1,368,-145.07568494974984,32199,161,87.47579622268677,56.51994705200195,6.949487209320068,-58.29482650756836,-57.751468658447266,-57.739463806152344,-1.7453889846801758
32,Pendulum-v1,367,-147.03843433437976,33199,166,90.24329400062561,53.26338195800781,20.45625877380371,-56.16289138793945,-54.500328063964844,-54.568973541259766,-1.782381296157837
33,Pendulum-v1,367,-149.23084868792756,34199,171,93.00097799301147,61.808712005615234,23.76909065246582,-64.69202423095703,-62.87687683105469,-62.89775085449219,-2.222958564758301
34,Pendulum-v1,367,-151.30099722379097,35199,176,95.73041915893555,65.88715362548828,13.642765045166016,-67.68246459960938,-67.47785949707031,-67.39678955078125,-2.269822597503662
35,Pendulum-v1,367,-150.02951806722393,36199,181,98.47996616363525,58.551361083984375,9.107623100280762,-61.87908935546875,-60.57711410522461,-60.80486297607422,-2.0723748207092285
36,Pendulum-v1,367,-151.08069430377572,37199,186,101.24816799163818,50.62837219238281,13.470969200134277,-51.534996032714844,-51.8846549987793,-51.907508850097656,-2.143645763397217
37,Pendulum-v1,367,-149.82089169719274,38199,191,103.98417806625366,53.80878448486328,267.8610534667969,-55.28843307495117,-55.66630172729492,-55.79458999633789,-1.877710223197937
38,Pendulum-v1,367,-149.0281844228977,39199,196,106.68087410926819,54.292694091796875,5.809112071990967,-55.91893768310547,-55.82435607910156,-55.80924987792969,-1.846005916595459
39,Pendulum-v1,367,-146.09741485706442,40199,201,109.47441816329956,56.42742919921875,14.332916259765625,-58.092185974121094,-58.40230941772461,-58.536888122558594,-2.065894603729248
40,Pendulum-v1,367,-142.99263074715466,41199,206,112.24890112876892,44.988197326660156,8.22243881225586,-46.02524185180664,-46.72511291503906,-46.51382827758789,-1.8395912647247314
41,Pendulum-v1,366,-141.05970380586547,42199,211,114.98443412780762,49.429107666015625,11.74251937866211,-49.97539520263672,-50.6817741394043,-50.70992660522461,-1.7031980752944946
42,Pendulum-v1,366,-143.52588004839725,43199,216,117.7399640083313,53.25625991821289,6.576946258544922,-55.42457962036133,-54.512001037597656,-54.41120147705078,-1.925264596939087
43,Pendulum-v1,366,-144.0966041605366,44199,221,120.54546284675598,52.11253356933594,8.324185371398926,-52.583648681640625,-53.3816032409668,-53.31709289550781,-2.067789077758789
44,Pendulum-v1,366,-149.86649281341732,45199,226,123.29840803146362,41.598854064941406,7.403752326965332,-43.088096618652344,-43.02819061279297,-42.97138977050781,-1.7547541856765747
45,Pendulum-v1,366,-145.98536409804953,46199,231,126.04633212089539,44.07080078125,10.078227996826172,-45.02347946166992,-45.22385025024414,-45.284446716308594,-1.6966352462768555
46,Pendulum-v1,366,-146.08374594757487,47199,236,128.80390214920044,44.58512878417969,10.421348571777344,-47.380638122558594,-45.89096450805664,-46.1058235168457,-1.5080633163452148
47,Pendulum-v1,366,-148.67631150327284,48199,241,131.57431602478027,48.90389633178711,6.64420223236084,-50.5305061340332,-49.880062103271484,-50.04624938964844,-1.6557499170303345
48,Pendulum-v1,366,-149.7503127094287,49199,246,134.3021640777588,42.06254959106445,6.697815895080566,-42.4599723815918,-43.147430419921875,-43.01320266723633,-1.413583517074585
